X:1
T:The A team
Z:arae69
M:4/4
L:1/8
Q:1/4=152
K:B
f2 cf4-f|Bc2F3 zA/2c/2|fc gf4-f|e3/2d/2 c/2B3/2 c4|
f3/2f/2 cf4-f|AB3/2zcF3-F/2|=A3/2B/2 =de4-e-|e8|
e^d zB e2 d2|^A3/2B/2 cf4-f|cB/2z3/2F c2 B2|BA F=F ^F4|
DD CD zC zD|zC zC G2 F2|DD CD zC zB,|zB, zB, C4|
DD CD zC zD|zC zC G2 F2|DD CD zC z3/2B,/2-|B,/2zB,3/2B, A,4|
E=D/2z3/2B, Ez E2-|E4 